X: 34928
T: Rocking The Boat
R: jig
M: 6/8
K: Amajor
A2E ABc|A2E ABc|B3dcB|c2e cBA|
A2E ABc|A2E ABc|e2c e2c|1 BAF FAB:|2 BAF FAB||
cde A2f|ecA F2B|cef ecA|B3BAB|
cde A2f|ecA ABc|e2c e2c|1 BAF FAB:|2 BAG AcB||

